packages/core/src/svgs/apx.svg

<svg width="24" height="24" viewBox="0 0 24 24" fill="none" xmlns="http://www.w3.org/2000/svg">
<g clip-path="url(#clip0_31_6017)">
<path d="M24 0H0V24H24V0Z" fill="url(#paint0_linear_31_6017)"/>
<path fill-rule="evenodd" clip-rule="evenodd" d="M17.7167 8.1836C16.7448 10.4198 15.1551 12.3314 13.1347 13.6929C11.1145 15.0545 8.74772 15.8093 6.31339 15.8687C5.80956 15.1187 5.45817 14.2767 5.27925 13.3908C5.10032 12.5048 5.09736 11.5923 5.27059 10.7052C5.44377 9.81805 5.78972 8.97385 6.2887 8.22063C6.78765 7.46746 7.42982 6.8201 8.17857 6.31546C8.92733 5.81086 9.76797 5.45892 10.6525 5.27969C11.5371 5.1005 12.4483 5.09755 13.3339 5.27099C14.2196 5.44447 15.0625 5.79097 15.8145 6.29073C16.5665 6.79049 17.2129 7.43369 17.7167 8.1836ZM18.0004 8.14075V7.28733C18.0006 7.2785 18.0028 7.2698 18.0072 7.26222C18.0115 7.25463 18.0179 7.24837 18.0252 7.24413L18.7886 6.81205C18.7959 6.80767 18.8041 6.80536 18.8125 6.80536C18.8209 6.8054 18.829 6.80767 18.8364 6.81209C18.8436 6.81646 18.8495 6.82276 18.8537 6.83035C18.8578 6.83793 18.8571 6.8465 18.8571 6.85525V7.70866C18.857 7.7174 18.8577 7.72593 18.8536 7.73352C18.8494 7.7411 18.8434 7.7474 18.8362 7.75186L18.0719 8.18399C18.0646 8.18836 18.0564 8.19063 18.0479 8.19063C18.0396 8.19063 18.0315 8.18832 18.0241 8.18395C18.0169 8.17953 18.0109 8.17323 18.0068 8.16569C18.0026 8.1581 18.0004 8.14949 18.0004 8.14075ZM17.5732 15.9802C18.408 14.8113 18.8569 13.4102 18.8569 11.973C18.8572 10.9139 18.6121 9.86909 18.141 8.92087C15.9943 11.6993 14.6335 14.9423 14.2016 18.4288C15.5595 17.9644 16.7384 17.1491 17.5732 15.9802Z" fill="white"/>
</g>
<defs>
<linearGradient id="paint0_linear_31_6017" x1="4.48054" y1="5.13951" x2="19.9704" y2="21.1482" gradientUnits="userSpaceOnUse">
<stop stop-color="#AA42FC"/>
<stop offset="1" stop-color="#5A49FF"/>
</linearGradient>
<clipPath id="clip0_31_6017">
<rect width="24" height="24" fill="white"/>
</clipPath>
</defs>
</svg>

<svg xmlns="http://www.w3.org/2000/svg" width="24" height="24" fill="none" viewBox="0 0 24 24"><g clip-path="url(#a)"><path fill="url(#b)" d="M24 0H0v24h24z"/><path fill="#fff" fill-rule="evenodd" d="M17.717 8.184a12.8 12.8 0 0 1-4.582 5.509 12.76 12.76 0 0 1-6.822 2.176 6.89 6.89 0 0 1 4.34-10.59 6.86 6.86 0 0 1 7.064 2.905M18 8.14v-.854q0-.013.007-.025a.1.1 0 0 1 .018-.018l.764-.432a.046.046 0 0 1 .065.018q.005.012.003.025v.854q0 .012-.003.025a.1.1 0 0 1-.018.018l-.764.432a.046.046 0 0 1-.065-.018A.1.1 0 0 1 18 8.14m-.427 7.84a6.9 6.9 0 0 0 1.284-4.008c0-1.06-.245-2.104-.716-3.052-2.147 2.778-3.507 6.021-3.94 9.508 1.358-.465 2.537-1.28 3.372-2.449" clip-rule="evenodd"/></g><defs><linearGradient id="b" x1="4.481" x2="19.97" y1="5.14" y2="21.148" gradientUnits="userSpaceOnUse"><stop stop-color="#AA42FC"/><stop offset="1" stop-color="#5A49FF"/></linearGradient><clipPath id="a"><path fill="#fff" d="M0 0h24v24H0z"/></clipPath></defs></svg>
